X:1
T:Dancing with Mom in the Kitchen
C:Bill Quern 2011
M:3/4
L:1/8
K:G
"G"G3FG2|B,CD2F2|"C"G3FG2|C4B,2|"D"A,B,C2D2|E4D2|"D7"FGA2F2|D4F2|
"G"G3FG2|B,CD2F2|"C"G3FG2|"Am7"C6|"D"A3BA2|FED2F2|"G"G3B (3ABA|"G"G6:|
"G"B3AB2|dBG4|"D"FGA2F2|D4D2|"C"c2E2E2|A4G2|"Am"FGA2F2|"D"D4c2|
"Em"B3AB2|dBG4|"D"FGA2F2|D4D2|"C"c4dc|"G"BAG2B2|"D"AGF2A2|"G"G6:|
W: © 2011 Bill Quern.   All rights reserved.
